X: 1
T:Kit O'Connor's Reel (Tommy Peoples' version)
M:4/4
L:1/8
S:T Peoples
R:reel
D:The Iron Man
Z:Naka Ishii <n_ishii@YAHOO.COM> irtrad-l 2000-10-25
K:A
E3F ABcd | eAcA BAFA | E3F ABcA | BF~F2 BFAF |
E2CE A,2CE | dccA BAFE | CE~E2 Acfc |1 ecBc A3F :|2 ecBc A3f |
| eAcA EAcf | eAcA BAFA | ec~c2 ecac | ec~c2 Bcdf |
ec~c2 acfc | ecAc BAFA | affe f2af |1 eAcA BcAf :|2 eAcA BcAF ||
